X:1
T:Title
%%score { ( 1 4 ) | ( 2 3 ) }
L:1/8
M:4/4
K:G
V:1 treble nm="Grand Piano"
V:4 treble 
V:2 treble 
V:3 treble 
V:1
 z4 z2[Q:1/4=100] DD | G2 G2 B2 AG | [FA]2 [FA]2 [FA]2 [DF][EG] | [FA]2 [FA]2 [Fc]2 [GB][FA] | %4
 B2 d2 d2 Bc | d2 e2 d2 GA | B2 c2 B2 BB | z2 .c2 z4 |[M:7/8] [B,DG]2 [A,DF]2 [G,B,DG]3 | %9
[M:1/4] [DGB][DAc] |[M:4/4] [DBd][DBd]GA B2 cB | [EA]2 E2 [EA]2 [GA][GB] | [Fc][Fc]DF A2 cc | %13
 B2 d2 d2 Bc | d2 e2 d2 GA | B2 c2 B2 BB | z2 .c2 z4 | %17
[M:15/8] [B,DG]2 [A,DF]-[A,DF] [G,B,DG]2- [G,B,DG] z2 z6 |] %18
V:2
 z4 z2 [G,B,][G,B,] | [G,B,D]2 [G,B,D]2 [G,DG]2[K:bass] [G,CD][G,B,] | %2
 [D,D]2 [D,D]2 [D,D]2 [D,A,][D,A,] | [D,D]2 [D,D]2 [D,A,]2 [D,D][D,D] | %4
 [G,DG]2 [G,B,G]2 [G,B,G]2 [G,G][G,A,G] | [G,B,G]2 [G,CG]2 [G,B,G]2 [G,B,D][G,CD] | %6
 [G,DG]2 [G,EG]2 [G,DG]2 GG | [D,C][D,B,][D,A,][D,A,] [G,B,G]2 [C,G,]C, |[M:7/8] D,2 D,2 G,,3 | %9
[M:1/4] G,G, |[M:4/4] G,G,[K:treble][G,B,D][G,CD] [G,DG]2 [G,EG][G,DG] | %11
 [C,C]2 [C,C]2 [C,C]2 [C,C][C,B,] | [D,A,][D,A,]D,F, A,2 [F,A,D][F,A,D] | %13
 [G,D]2 [G,B,D]2 [G,B,D]2 [G,G][G,A,G] | [G,B,G]2 [G,CG]2 [G,B,G]2 [G,B,D][G,CD] | %15
 [G,DG]2 [G,EG]2 [G,DG]2 GG | [D,C][D,B,][D,A,][D,A,] [G,B,G]2 [C,G,]C, | %17
[M:15/8] D,2 D,-D, G,,2- G,, z2 z6 |] %18
V:3
 x8 | x6[K:bass] x2 | x8 | x8 | x8 | x8 | z4 z2 [G,D]2 | x8 |[M:7/8] x7 |[M:1/4] x2 | %10
[M:4/4] x2[K:treble] x6 | x8 | x8 | x8 | x8 | z4 z2 [G,D]2 | x8 |[M:15/8] x15 |] %18
V:4
 x8 | x8 | x8 | x8 | x8 | x8 | x8 | [FA][GB]F-[Fe] d2 [Ec][CEA] |[M:7/8] x7 |[M:1/4] x2 | %10
[M:4/4] x8 | x8 | x8 | x8 | x8 | x8 | [FA][GB]F-[Fe] d2 [Ec][CEA] |[M:15/8] x15 |] %18

